X:1
T:Psalm 93
T:V 1
L:1/4
M:16/4
I:linebreak $
K:C
V:1 treble nm="Pipe Organ" snm="Org."
V:1
 G2 E2 F2 G G A c c B c3 z |$[M:18/4] c2 A2 c2 B G A B c2 A2 G3 z |$ %2
w: Die HEER re- geer. Die kleed van heer- lik- heid|wat Hom om- straal, is en- kel ma- jes- teit.|
[M:16/4] E2 F G A2 G2 F D E E D3 z |$[M:18/4] G2 G G A2 c2 c B c2 A2 G4 |] %4
w: En deur sy krag, wat en- kel tri- om- feer,|hou al- les stand, dit wan- kel nim- mer- meer.|

